images/agent-icon.svg

<svg width="14" height="16" viewBox="0 0 14 16" fill="none" xmlns="http://www.w3.org/2000/svg">
<path opacity="0.4" d="M7 8C9.20938 8 11 6.20937 11 4C11 1.79063 9.20938 0 7 0C4.79063 0 3 1.79063 3 4C3 6.20937 4.79063 8 7 8ZM9.99375 9.01875L8.5 15L7.5 10.75L8.5 9H5.5L6.5 10.75L5.5 15L4.00625 9.01875C1.77812 9.125 0 10.9469 0 13.2V14.5C0 15.3281 0.671875 16 1.5 16H12.5C13.3281 16 14 15.3281 14 14.5V13.2C14 10.9469 12.2219 9.125 9.99375 9.01875Z" fill="#9FA2B4"/>
</svg>

<svg width="14" height="16" fill="none" xmlns="http://www.w3.org/2000/svg"><path opacity=".4" d="M7 8a4 4 0 1 0 0-8 4 4 0 0 0 0 8Zm2.994 1.019L8.5 15l-1-4.25L8.5 9h-3l1 1.75-1 4.25-1.494-5.981C1.778 9.125 0 10.947 0 13.2v1.3A1.5 1.5 0 0 0 1.5 16h11a1.5 1.5 0 0 0 1.5-1.5v-1.3c0-2.253-1.778-4.075-4.006-4.181Z" fill="#9FA2B4"/></svg>
